X: 830
T: Geçsin Günler Haftalar
C: Erol Sayan
O: Turkey
F: http://compmusic.upf.edu/node/140
N: rast--sarki--semai--gecsin_gunler--erol_sayan
N: makam= rast
N: form= sarki
N: usul= semai = 3/4
M: 3/4
L: 1/16
K: C _1/4B ^f  
Q: 1/4=152
%%MIDI tuningsystem comma53
d12  | d12  | d4 B2c2 d2e2  | d4 g4 z2f2  | c12  | c12  | \
w:  ARANAĞME  |   |   |   |   |   | 
c4 A2B2 c2d2  | c4 f4 z2e2  | 
w:   |   | 
B12  | B12  | B4 G2A2 B2c2  | B4 e4 z2d2  | A12  | A12  | \
w:   |   |   |   |   |   | 
E4 E2E2 E2E2  | F8 F4  | G12  | 
w:   |   |   | 
G12  | d12  | d12  | d4 B2c2 d2e2  | d4 g4 z2f2  | c12  | c12  | \
w:   |  ARANAĞME  |   |   |   |   |   | 
c4 A2B2 c2d2  | c4 f4 z2e2  | 
w:   |   | 
B12  | B12  | B4 G2A2 B2c2  | B4 e4 z2d2  | A12  | A12  | \
w:   |   |   |   |   |   | 
E4 E2E2 E2E2  | F8 F4  | G12  | 
w:   |   |   | 
G12  | D12  | B12  | A8 B4  | c12  | e12  | d4 c4 d4  | B12  | B12  | \
w:   |  Geç  |  sin   |  gün  |  ler   |   |  haf *  ta  |  lar   |   | 
A8 B4  | c12  | G8 A4  | B12  | e4 d4 B4  | 
w:  ay  |  lar   |  mev  |  sim  |  ler   | 
c4 A4 F4  | G12  | G12  | D12  | B12  | A8 B4  | c12  | e12  | \
w:  yıl  |  lar    |   |  Geç  |  sin   |  gün  |  ler   |   | 
d4 c4 d4  | B12  | B12  | A8 B4  | c12  | G8 A4  | 
w:  haf *  ta  |  lar   |   |  ay  |  lar   |  mev  | 
B12  | e4 d4 B4  | c4 A4 F4  | G12  | G12  | d4 d8  | \
w:  sim  |  ler   |  yıl  |  lar    |   |  Za man   | 
e8 f4  | d4 g4 d4  | B4 e4 d4  | c12  | c8 B4  | 
w:  san ki   |  bir   |  rüz  |  gâr   |  *  ve   | 
d12  | c12  | e4 d4 ^c4  | c4 B4 ^A4  | B12  | B12  | \
w:  bir   |  su   |  gi bi   |  ak  |  sın    |   | 
d4 d8  | e8 f4  | d4 g4 d4  | B4 e4 d4  | c12  | 
w:  Za man   |  san ki   |  bir   |  rüz  |  gâr   | 
c8 B4  | d12  | c12  | e4 e4 d4  | c4 B4 ^A4  | B12  | \
w:  *  ve   |  bir   |  su   |  gi bi   |  ak  |  sın    | 
G2A2 B2c2 d4  | d12  | B6c2 d4  | e8 c4  | 
w:  SAZ  |  Sen   |  göz le rim  |  de  bir   | 
A12  | A4 B6c2  | d8 B4  | A4 B4 A4  | G12  | \
w:  renk   |  ku lak la  |  rım da   |  bir   |  ses   | 
G4 A4 B4  | c4 A6G2  | F12  | F12  | E4 F4 E4  | 
w:  ve  i çim  |  de  bir  ne  |  fes   |   |  o la rak   | 
D4 E4 F4  | G12  | G2A2 B2c2 d4  | d12  | B6c2 d4  | \
w:  ka la cak  |  sın    |  SAZ  |  Sen   |  göz le rim  | 
e8 c4  | A12  | A4 B6c2  | d8 B4  | 
w:  de  bir   |  renk   |  ku lak la  |  rım da   | 
A4 B4 A4  | G12  | G4 A4 B4  | c4 A6G2  | F12  | F12  | \
w:  bir   |  ses   |  ve  i çim  |  de  bir  ne  |  fes   |   | 
E4 F4 E4  | D4 E4 F4  | G12  | G2A2 B2c2 d4  | 
w:  o la rak   |  ka la cak  |  sın    |  SAZ  | 
d12  | d12  | d4 B2c2 d2e2  | d4 g4 z2f2  | c12  | c12  | \
w:  ARANAĞME  |   |   |   |   |   | 
c4 A2B2 c2d2  | c4 f4 z2e2  | 
w:   |   | 
B12  | B12  | B4 G2A2 B2c2  | B4 e4 z2d2  | A12  | A12  | \
w:   |   |   |   |   |   | 
E4 E2E2 E2E2  | F8 F4  | G12  | 
w:   |   |   | 
G12  | d12  | d12  | d4 B2c2 d2e2  | d4 g4 z2f2  | c12  | c12  | \
w:   |  ARANAĞME  |   |   |   |   |   | 
c4 A2B2 c2d2  | c4 f4 z2e2  | 
w:   |   | 
B12  | B12  | B4 G2A2 B2c2  | B4 e4 z2d2  | A12  | A12  | \
w:   |   |   |   |   |   | 
E4 E2E2 E2E2  | F8 F4  | G12  | 
w:   |   |   | 
G12  | D12  | B12  | A8 B4  | c12  | e12  | d4 c4 d4  | B12  | B12  | \
w:   |  Geç  |  sin   |  gün  |  ler   |   |  haf *  ta  |  lar   |   | 
A8 B4  | c12  | G8 A4  | B12  | e4 d4 B4  | 
w:  ay  |  lar   |  mev  |  sim  |  ler   | 
c4 A4 F4  | G12  | G12  | D12  | B12  | A8 B4  | c12  | e12  | \
w:  yıl  |  lar    |   |  Geç  |  sin   |  gün  |  ler   |   | 
d4 c4 d4  | B12  | B12  | A8 B4  | c12  | G8 A4  | 
w:  haf *  ta  |  lar   |   |  ay  |  lar   |  mev  | 
B12  | e4 d4 B4  | c4 A4 F4  | G12  | G12  | d4 d8  | \
w:  sim  |  ler   |  yıl  |  lar    |   |  Za man   | 
e8 f4  | d4 g4 d4  | B4 e4 d4  | c12  | c8 B4  | 
w:  san ki   |  bir   |  rüz  |  gâr   |  *  ve   | 
d12  | c12  | e4 d4 ^c4  | c4 B4 ^A4  | B12  | B12  | \
w:  bir   |  su   |  gi bi   |  ak  |  sın    |   | 
d4 d8  | e8 f4  | d4 g4 d4  | B4 e4 d4  | c12  | 
w:  Za man   |  san ki   |  bir   |  rüz  |  gâr   | 
c8 B4  | d12  | c12  | e4 e4 d4  | c4 B4 ^A4  | B12  | \
w:  *  ve   |  bir   |  su   |  gi bi   |  ak  |  sın    | 
G2A2 B2c2 d4  | d12  | B6c2 d4  | e8 c4  | 
w:  SAZ  |  Sen   |  göz le rim  |  de  bir   | 
A12  | A4 B6c2  | d8 B4  | A4 B4 A4  | G12  | \
w:  renk   |  ku lak la  |  rım da   |  bir   |  ses   | 
G4 A4 B4  | c4 A6G2  | F12  | F12  | E4 F4 E4  | 
w:  ve  i çim  |  de  bir  ne  |  fes   |   |  o la rak   | 
D4 E4 F4  | G12  | |


